static/img/device/component-diode2.svg

<svg width="130" height="49" viewBox="0 0 130 49" fill="none" xmlns="http://www.w3.org/2000/svg">
<g clip-path="url(#clip0_74_402)">
<path d="M130 5.71815H0V10.5556H130V5.71815Z" fill="white"/>
<path d="M130 38.4444H0V43.2818H130V38.4444Z" fill="white"/>
<mask id="mask0_74_402" style="mask-type:luminance" maskUnits="userSpaceOnUse" x="49" y="0" width="31" height="16">
<path d="M50.5201 0.319092C50.0088 0.319092 49.5999 3.81636 49.5999 8.1305C49.5999 12.4446 50.0088 15.9419 50.5201 15.9419H78.8026C79.3138 15.9419 79.7228 12.4446 79.7228 8.1305C79.7228 3.81636 79.3138 0.319092 78.8026 0.319092H50.5201Z" fill="white"/>
</mask>
<g mask="url(#mask0_74_402)">
<path d="M79.7355 0.319092H49.5999V15.9547H79.7355V0.319092Z" fill="white"/>
</g>
<path d="M78.8154 0.319092H50.5328C50.0216 0.319092 49.6127 3.81636 49.6127 8.1305C49.6127 12.4446 50.0216 15.9419 50.5328 15.9419H78.8154C79.3266 15.9419 79.7355 12.4446 79.7355 8.1305C79.7355 3.81636 79.3266 0.319092 78.8154 0.319092Z" stroke="#231815" stroke-width="0.5" stroke-miterlimit="10"/>
<path d="M53.0761 0.319092C52.5649 0.319092 52.1559 3.81636 52.1559 8.1305C52.1559 12.4446 52.5649 15.9419 53.0761 15.9419H55.3765C54.8653 15.9419 54.4563 12.4446 54.4563 8.1305C54.4563 3.81636 54.8653 0.319092 55.3765 0.319092H53.0761Z" stroke="#231815" stroke-width="0.3" stroke-linecap="round" stroke-linejoin="round"/>
<path d="M0 10.5301H49.651C49.766 13.67 50.1239 15.9419 50.5328 15.9419H78.8282C79.2371 15.9419 79.5822 13.67 79.71 10.5301H130.026M130 5.69263H79.6844C79.5566 2.57827 79.2116 0.319092 78.8154 0.319092H50.5201C50.1111 0.319092 49.766 2.57827 49.651 5.69263H0" stroke="#231815" stroke-width="0.5" stroke-miterlimit="10"/>
<mask id="mask1_74_402" style="mask-type:luminance" maskUnits="userSpaceOnUse" x="49" y="33" width="31" height="16">
<path d="M50.5201 33.0453C50.0088 33.0453 49.5999 36.5426 49.5999 40.8567C49.5999 45.1709 50.0088 48.6681 50.5201 48.6681H78.8026C79.3138 48.6681 79.7228 45.1709 79.7228 40.8567C79.7228 36.5426 79.3138 33.0453 78.8026 33.0453H50.5201Z" fill="white"/>
</mask>
<g mask="url(#mask1_74_402)">
<path d="M79.7355 33.0453H49.5999V48.6809H79.7355V33.0453Z" fill="white"/>
</g>
<path d="M78.8154 33.0453H50.5328C50.0216 33.0453 49.6127 36.5426 49.6127 40.8567C49.6127 45.1709 50.0216 48.6681 50.5328 48.6681H78.8154C79.3266 48.6681 79.7355 45.1709 79.7355 40.8567C79.7355 36.5426 79.3266 33.0453 78.8154 33.0453Z" stroke="#231815" stroke-width="0.5" stroke-miterlimit="10"/>
<path d="M53.0761 33.0453C52.5649 33.0453 52.1559 36.5426 52.1559 40.8567C52.1559 45.1709 52.5649 48.6681 53.0761 48.6681H55.3765C54.8653 48.6681 54.4563 45.1709 54.4563 40.8567C54.4563 36.5426 54.8653 33.0453 55.3765 33.0453H53.0761Z" stroke="#231815" stroke-width="0.3" stroke-linecap="round" stroke-linejoin="round"/>
<path d="M0 43.2691H49.651C49.766 46.409 50.1239 48.6809 50.5328 48.6809H78.8282C79.2371 48.6809 79.5822 46.409 79.71 43.2691H130.026M130 38.4189H79.6844C79.5566 35.3045 79.2116 33.0453 78.8154 33.0453H50.5201C50.1111 33.0453 49.766 35.3045 49.651 38.4189H0" stroke="#231815" stroke-width="0.5" stroke-miterlimit="10"/>
</g>
<defs>
<clipPath id="clip0_74_402">
<rect width="130" height="49" fill="white"/>
</clipPath>
</defs>
</svg>

<svg xmlns="http://www.w3.org/2000/svg" width="130" height="49" fill="none" viewBox="0 0 130 49"><g clip-path="url(#a)"><path fill="#fff" d="M130 5.718H0v4.838h130zM130 38.444H0v4.838h130z"/><mask id="b" width="31" height="16" x="49" y="0" maskUnits="userSpaceOnUse" style="mask-type:luminance"><path fill="#fff" d="M50.52.32c-.511 0-.92 3.496-.92 7.81 0 4.315.409 7.812.92 7.812h28.283c.51 0 .92-3.497.92-7.812 0-4.314-.41-7.81-.92-7.81z"/></mask><g mask="url(#b)"><path fill="#fff" d="M79.736.32H49.6v15.635h30.136z"/></g><path stroke="#231815" stroke-miterlimit="10" stroke-width=".5" d="M78.815.32H50.533c-.511 0-.92 3.496-.92 7.81 0 4.315.409 7.812.92 7.812h28.282c.512 0 .92-3.497.92-7.812 0-4.314-.408-7.81-.92-7.81Z"/><path stroke="#231815" stroke-linecap="round" stroke-linejoin="round" stroke-width=".3" d="M53.076.32c-.511 0-.92 3.496-.92 7.81 0 4.315.409 7.812.92 7.812h2.3c-.51 0-.92-3.497-.92-7.812 0-4.314.41-7.81.92-7.81z"/><path stroke="#231815" stroke-miterlimit="10" stroke-width=".5" d="M0 10.53h49.651c.115 3.14.473 5.412.882 5.412h28.295c.41 0 .754-2.272.882-5.412h50.316M130 5.693H79.684c-.127-3.115-.472-5.374-.869-5.374H50.52c-.409 0-.754 2.26-.869 5.374H0"/><mask id="c" width="31" height="16" x="49" y="33" maskUnits="userSpaceOnUse" style="mask-type:luminance"><path fill="#fff" d="M50.52 33.045c-.511 0-.92 3.498-.92 7.812s.409 7.811.92 7.811h28.283c.51 0 .92-3.497.92-7.811s-.41-7.812-.92-7.812z"/></mask><g mask="url(#c)"><path fill="#fff" d="M79.736 33.045H49.6v15.636h30.136z"/></g><path stroke="#231815" stroke-miterlimit="10" stroke-width=".5" d="M78.815 33.045H50.533c-.511 0-.92 3.498-.92 7.812s.409 7.811.92 7.811h28.282c.512 0 .92-3.497.92-7.811s-.408-7.812-.92-7.812Z"/><path stroke="#231815" stroke-linecap="round" stroke-linejoin="round" stroke-width=".3" d="M53.076 33.045c-.511 0-.92 3.498-.92 7.812s.409 7.811.92 7.811h2.3c-.51 0-.92-3.497-.92-7.811s.41-7.812.92-7.812z"/><path stroke="#231815" stroke-miterlimit="10" stroke-width=".5" d="M0 43.27h49.651c.115 3.139.473 5.41.882 5.41h28.295c.41 0 .754-2.271.882-5.41h50.316M130 38.418H79.684c-.127-3.114-.472-5.374-.869-5.374H50.52c-.409 0-.754 2.26-.869 5.374H0"/></g><defs><clipPath id="a"><path fill="#fff" d="M0 0h130v49H0z"/></clipPath></defs></svg>
